X:1
T:Title
%%score { ( 1 3 ) | ( 2 4 ) }
L:1/8
Q:1/4=88
M:4/4
K:Ab
V:1 treble nm="Grand Piano"
V:3 treble 
V:2 bass 
V:4 bass 
V:1
 [CE]>[Ec] [DG]>[DB] [CA]>[CA] [CE]2 | [A,C]>[CE] [CF]>[CB] A2 G2 | E>d =A>c B>B F2 | %3
w: Chas.~H.~Gabriel * * * * * *|||
 G>A B>d c2 c2 | e>c e>c e2 A2 | [Gd]>[EG] [Gd]>[EG] [Gd]4 | d>B =A>B [Ec]>[Ec] [=EG]2 | z4 B4 | %8
w: |||||
 e>c e>c e2 A2 | [Gd]>[EG] [Gd]>[EG] [Gd]4 | [Ed]>[EB] [Ec]>[Ed] [Ee]2 [EA]2 | c>d c>B [CA]4 |] %12
w: ||||
V:2
 [A,,A,]>[A,,A,] [A,,E,]>[A,,E,] [A,,E,]>[A,,E,] [A,,A,]2 | %1
 [A,,E,]>[A,,A,] [A,,A,]>[A,,A,] [E,B,D]2 [E,B,D]2 | %2
 [E,G,]>[E,B,E] [E,F,E]>[E,F,E] [E,G,D]>[E,G,D] [E,G,D]2 | %3
 [E,B,D]>[E,F,C] [E,G,E]>[E,B,E][K:treble] [A,E]2 [A,E]2 | %4
 [A,CA]>[A,E] [A,CA]>[A,E] [A,CA]2[K:bass] [A,CE]2 | [E,B,]>[E,B,] [E,B,]>[E,B,] [E,B,]4 | %6
 [E,B,E]>[E,G,E] [E,_G,E]>[E,=G,E] [A,,A,]>[A,,A,] [C,B,]2 | %7
 [B,,F,B,]>[A,B,=D] [G,B,D]>[F,B,D] [E,E]4 | [A,CA]>[A,E] [A,CA]>[A,E] [A,CA]2[K:bass] [A,CE]2 | %9
 [E,B,]>[E,B,] [E,B,]>[E,B,] [E,B,]4 | [E,B,]>[D,G,] [C,A,]>[B,,B,] [A,,C]2 [C,A,]2 | %11
 [E,A,E]>[E,B,E] [E,A,E]>[E,G,D] [A,,A,]4 |] %12
V:3
 x8 | x8 | x8 | x8 | x8 | x8 | x8 | [=DA]>F G>A z2 _D2 | x8 | x8 | x8 | x8 |] %12
V:4
 x8 | x8 | x8 | x4[K:treble] x4 | x6[K:bass] x2 | x8 | x8 | z4 A,2 z2 | x6[K:bass] x2 | x8 | x8 | %11
 x8 |] %12

